X:90
T:Maidens March. LIT.090
M:3/4
Q:1/4=170
L:1/8
B:Wm. Litten MS, 1802
Z:Village Music Project 2017 Anne Wride
K:D
df | a2a2a2 | d'4 df | g2g2g2 | b4 eg |
f2f2a2 | e2e2g2 | A2 AB cA | d4 :|
|: d2 | c2c2c2 | A2B2B2 | G2A2A2 | F2G2 DG |
B2G2 DG | BA GF ED | EF ED CA, | D4 :|

